X: 0932
M: 4/4
L: 1/16
K: D
d4 d3d d4 fafd | e4 e3e e4 f3g |\
a4 a3b a2f2d2f2 | efed cdcB ABAG FGFE |
a2d'2 c'bag f4 e4 | d4 d3d d4 :: f3g |
a4 a3a a4 d'3a | b4 a3a a4 f3g |\
a4 a3b a2f2d2f2 | efed cdcB ABAG FGFE |
a2d'2 c'bag f4 e4 | d4 d3d d4 :|

